X: 40783
T: Toward The Sun
R: reel
M: 4/4
K: Amajor
|:B2 f2 b3 b|d'2 g2 g2 fg|a2 d2 deed|eafd e2 dc|
B2 f2 b2 ab|d'ggf ~g2 fg|a2 d2 deed|1 ea f2- fedc:|2 e z3 g4||
|:fBBA B2 AB|dB G2- G g3|f ~A3 cAcd|ec A2 g2 g2|
fBBA B2 AB|dGGF G2 FG|1 A2 DA FA (3FED|EFAB defg:|2 A2 DA e2 ed|e2 z4 dc:|

